X: 10453
M: 6/8
L: 1/8
K: Bb
|:\
bfd fdB | BcB BGF ::\
fdf geg | fdB c2B |\
fdf gab | BcB BGF |\
fdf geg | afa bag |\
fgf ded | BcB BG"^D.C."F :|


